svgs/thin/triangle-exclamation.svg

<svg xmlns="http://www.w3.org/2000/svg" viewBox="0 0 512 512"><!--! Font Awesome Pro 6.3.0 by @fontawesome - https://fontawesome.com License - https://fontawesome.com/license (Commercial License) Copyright 2023 Fonticons, Inc. --><path d="M256 320c4.406 0 8.013-3.594 8.013-8v-160c0-4.406-3.607-8-8.013-8c-4.406 0-7.987 3.594-7.987 8v160C248 316.4 251.6 320 256 320zM506.3 417l-213.3-364C284.8 39 270.4 32 256 32C241.7 32 227.2 39 218.1 53l-213.2 364C-10.62 444.9 9.848 480 42.74 480h426.6C502 480 522.7 445 506.3 417zM492.6 450.7C487.8 459 479.1 464 469.3 464H42.73c-9.789 0-18.49-4.982-23.27-13.33c-4.678-8.162-4.641-17.49 .1035-25.58L232.8 61.1C237.6 52.9 246.3 48 256 48c9.699 0 18.34 4.887 23.14 13.09l213.3 364C497.2 433.2 497.2 442.5 492.6 450.7zM256.1 368c-8.822 0-16 7.178-16 16s7.138 16 15.96 16c8.822 0 16.04-7.178 16.04-16S264.9 368 256.1 368z"/></svg>

<svg xmlns="http://www.w3.org/2000/svg" viewBox="0 0 512 512"><!-- Font Awesome Pro 6.0.0-alpha2 by @fontawesome - https://fontawesome.com License - https://fontawesome.com/license (Commercial License) --><path d="M256.017 320C260.423 320 264.017 316.406 264.017 312V152C264.017 147.594 260.423 144 256.017 144C251.61 144 248.017 147.594 248.017 152V312C248.017 316.406 251.61 320 256.017 320ZM506.218 417L292.961 53C284.781 39 270.406 32 256.019 32C241.634 32 227.237 39 219.014 53L5.757 417C-10.604 444.918 9.841 480 42.73 480H469.328C502.052 480 522.663 445 506.218 417ZM492.555 450.654C487.772 459.01 479.088 464 469.328 464H42.73C32.941 464 24.242 459.018 19.458 450.67C14.781 442.508 14.818 433.184 19.562 425.088L232.811 61.104C237.63 52.898 246.306 48 256.019 48C265.718 48 274.363 52.887 279.156 61.088L492.421 425.104C497.173 433.191 497.219 442.504 492.555 450.654ZM256.079 368C247.257 368 240.079 375.178 240.079 384S247.257 400 256.079 400C264.902 400 272.079 392.822 272.079 384S264.902 368 256.079 368Z"/></svg>
